public/svg/barber.svg

<svg height="116" viewBox="0 0 55 116" width="55" xmlns="http://www.w3.org/2000/svg" xmlns:xlink="http://www.w3.org/1999/xlink"><linearGradient id="a"><stop offset=".001370142" stop-color="#5d72d9"/><stop offset="1" stop-color="#52bbeb"/></linearGradient><linearGradient id="b" x1="50.000206%" x2="50.000206%" xlink:href="#a" y1="99.374483%" y2="-.344807%"/><linearGradient id="c" x1="49.751015%" x2="49.751015%" xlink:href="#a" y1="1601.29444%" y2="-67.863072%"/><g fill="none" transform="translate(0 1.074468)"><path d="m49.6854441 83.4780505v-53.149551c2.9399671-.0890277 5.3145559-2.4705193 5.3145559-5.3861773 0-2.7153455-2.0353618-4.9632956-4.7039474-5.3416634-1.4699835-11.15072236-11.1944901-19.67512689-22.7960526-19.67512689-4.7491776 0-9.3174342 1.42444358-13.2072368 4.09527529-.7689145.53416634-.9498356 1.58024209-.4070724 2.33697774.5427631.75673565 1.6056743.9347911 2.3745888.40062476 3.3018092-2.27020695 7.1916118-3.49433815 11.2397204-3.49433815 9.7018914 0 17.8885691 7.01093325 19.3585526 16.29207345h-38.71710523c.49753289-3.0714565 1.71875-5.9871145 3.61842103-8.4798907.5653783-.7344787.4070724-1.78055448-.3618421-2.33697775-.7689145-.55642328-1.80921051-.40062476-2.3745888.33385396-.15830592.20031238-.29399671.40062476-.4296875.60093713-2.10320724 2.96017186-3.41488487 6.36548226-3.88980263 9.94884806-2.6459704.3783679-4.70394737 2.6263179-4.70394737 5.3416635 0 2.9156579 2.37458882 5.2971495 5.31455592 5.3861772v53.149551c-2.9399671.0890277-5.31455592 2.4705193-5.31455592 5.3861773 0 2.7153455 2.03536184 4.9632956 4.70394737 5.3416634 1.46998355 11.1507219 11.21710523 19.6973839 22.79605263 19.6973839s21.3260691-8.524405 22.7960526-19.6973839c2.6459704-.3783678 4.7039474-2.6263179 4.7039474-5.3416634 0-2.9379149-2.3745888-5.3194065-5.3145559-5.4084342zm-23.3388158-9.3033971c-.6558388-.645451-1.7413651-.645451-2.397204 0l-9.453125 9.3033971h-5.78947364v-5.6977743l37.58634864-36.9910192v11.4178056l-17.5493421 17.2713783c-.6106085.6009372-.6558388 1.624756-.0904605 2.270207.6332237.7344787 1.8092105.7789926 2.4876645.0890277l15.129523-14.8898868v11.4178056l-15.3782895 15.1124561h-11.6015625l7.0559211-6.9441625c.6558388-.645451.6558388-1.7137837 0-2.3592346zm-7.0559211-43.8461539-10.58388154 10.4162437v-10.4162437zm9.4078948 9.2588833c.6558388.645451 1.7413651.645451 2.3972039 0l9.3852796-9.2366264h5.7894737v5.6977743l-37.56373354 36.9910192v-11.4178056l17.59457234-17.3158922c.6558388-.645451.6558388-1.7137837 0-2.3592347s-1.7413651-.645451-2.3972039 0l-15.17475331 14.9344007v-11.4178056l15.40090461-15.1569699h11.6015625l-6.9880757 6.8773916c-.701069.6899649-.701069 1.7360406-.0452302 2.4037486zm17.5945723 33.4521671v10.4162436h-10.5838815zm-42.90090456-48.0972277c0-1.1351034.92722039-2.0476376 2.0805921-2.0476376h44.05427636c1.1533717 0 2.0805921.9125342 2.0805921 2.0476376 0 1.1351035-.9272204 2.0476377-2.0805921 2.0476377h-44.05427636c-1.15337171 0-2.0805921-.9125342-2.0805921-2.0476377zm24.10773026 85.6001558c-9.7018914 0-17.88856908-7.03319-19.35855263-16.292073h38.71710523c-1.4699835 9.258883-9.6566612 16.292073-19.3585526 16.292073zm22.0271382-19.6306126h-44.05427636c-1.15337171 0-2.0805921-.9125342-2.0805921-2.0476377 0-1.1351034.92722039-2.0476376 2.0805921-2.0476376h44.05427636c1.1533717 0 2.0805921.9125342 2.0805921 2.0476376 0 1.1351035-.9272204 2.0476377-2.0805921 2.0476377z" fill="url(#b)"/><path d="m14.2173913 4.92553191c-2.4811594 1.55555556-5.2173913 5.05555556-5.2173913 5.05555556l2.8753623 1.94444443s1.7855073-2.69934639 5.1246377-4.71241829" fill="url(#c)"/></g></svg>

<?xml version="1.0" encoding="UTF-8"?>
<svg width="55px" height="116px" viewBox="0 0 55 116" version="1.1" xmlns="http://www.w3.org/2000/svg" xmlns:xlink="http://www.w3.org/1999/xlink">
    <title>barber</title>
    <defs>
        <linearGradient x1="50.0002056%" y1="99.3744826%" x2="50.0002056%" y2="-0.344806716%" id="linearGradient-1">
            <stop stop-color="#5D72D9" offset="0.1370142%"></stop>
            <stop stop-color="#52BBEB" offset="100%"></stop>
        </linearGradient>
        <linearGradient x1="49.7510145%" y1="1601.29444%" x2="49.7510145%" y2="-67.8630719%" id="linearGradient-2">
            <stop stop-color="#5D72D9" offset="0.1370142%"></stop>
            <stop stop-color="#52BBEB" offset="100%"></stop>
        </linearGradient>
    </defs>
    <g id="Page-1" stroke="none" stroke-width="1" fill="none" fill-rule="evenodd">
        <g id="Home-desktop" transform="translate(-932.000000, -1091.000000)" fill-rule="nonzero">
            <g id="barber" transform="translate(932.000000, 1092.074468)">
                <path d="M49.6854441,83.4780505 L49.6854441,30.3284995 C52.6254112,30.2394718 55,27.8579802 55,24.9423222 C55,22.2269767 52.9646382,19.9790266 50.2960526,19.6006588 C48.8260691,8.44993644 39.1015625,-0.0744680851 27.5,-0.0744680851 C22.7508224,-0.0744680851 18.1825658,1.34997549 14.2927632,4.0208072 C13.5238487,4.55497354 13.3429276,5.60104929 13.8856908,6.35778494 C14.4284539,7.11452059 15.4913651,7.29257604 16.2602796,6.7584097 C19.5620888,4.48820275 23.4518914,3.26407155 27.5,3.26407155 C37.2018914,3.26407155 45.3885691,10.2750048 46.8585526,19.556145 L8.14144737,19.556145 C8.63898026,16.4846885 9.86019737,13.5690305 11.7598684,11.0762543 C12.3252467,10.3417756 12.1669408,9.29569982 11.3980263,8.73927655 C10.6291118,8.18285327 9.58881579,8.33865179 9.0234375,9.07313051 C8.86513158,9.27344289 8.72944079,9.47375527 8.59375,9.67406764 C6.49054276,12.6342395 5.17886513,16.0395499 4.70394737,19.6229157 C2.05797697,20.0012836 0,22.2492336 0,24.9645792 C0,27.8802371 2.37458882,30.2617287 5.31455592,30.3507564 L5.31455592,83.5003074 C2.37458882,83.5893351 0,85.9708267 0,88.8864847 C0,91.6018302 2.03536184,93.8497803 4.70394737,94.2281481 C6.17393092,105.37887 15.9210526,113.925532 27.5,113.925532 C39.0789474,113.925532 48.8260691,105.401127 50.2960526,94.2281481 C52.942023,93.8497803 55,91.6018302 55,88.8864847 C55,85.9485698 52.6254112,83.5670782 49.6854441,83.4780505 Z M26.3466283,74.1746534 C25.6907895,73.5292024 24.6052632,73.5292024 23.9494243,74.1746534 L14.4962993,83.4780505 L8.70682566,83.4780505 L8.70682566,77.7802762 L46.2931743,40.789257 L46.2931743,52.2070626 L28.7438322,69.4784409 C28.1332237,70.0793781 28.0879934,71.1031969 28.6533717,71.7486479 C29.2865954,72.4831266 30.4625822,72.5276405 31.1410362,71.8376756 L46.2705592,56.9477888 L46.2705592,68.3655944 L30.8922697,83.4780505 L19.2907072,83.4780505 L26.3466283,76.533888 C27.0024671,75.888437 27.0024671,74.8201043 26.3466283,74.1746534 L26.3466283,74.1746534 Z M19.2907072,30.3284995 L8.70682566,40.7447432 L8.70682566,30.3284995 L19.2907072,30.3284995 L19.2907072,30.3284995 Z M28.698602,39.5873828 C29.3544408,40.2328338 30.4399671,40.2328338 31.0958059,39.5873828 L40.4810855,30.3507564 L46.2705592,30.3507564 L46.2705592,36.0485307 L8.70682566,73.0395499 L8.70682566,61.6217443 L26.301398,44.3058521 C26.9572368,43.6604011 26.9572368,42.5920684 26.301398,41.9466174 C25.6455592,41.3011664 24.5600329,41.3011664 23.9041941,41.9466174 L8.72944079,56.8810181 L8.72944079,45.4632125 L24.1303454,30.3062426 L35.7319079,30.3062426 L28.7438322,37.1836342 C28.0427632,37.8735991 28.0427632,38.9196748 28.698602,39.5873828 L28.698602,39.5873828 Z M46.2931743,73.0395499 L46.2931743,83.4557935 L35.7092928,83.4557935 L46.2931743,73.0395499 Z M3.39226974,24.9423222 C3.39226974,23.8072188 4.31949013,22.8946846 5.47286184,22.8946846 L49.5271382,22.8946846 C50.6805099,22.8946846 51.6077303,23.8072188 51.6077303,24.9423222 C51.6077303,26.0774257 50.6805099,26.9899599 49.5271382,26.9899599 L5.47286184,26.9899599 C4.31949013,26.9899599 3.39226974,26.0774257 3.39226974,24.9423222 L3.39226974,24.9423222 Z M27.5,110.542478 C17.7981086,110.542478 9.61143092,103.509288 8.14144737,94.250405 L46.8585526,94.250405 C45.3885691,103.509288 37.2018914,110.542478 27.5,110.542478 Z M49.5271382,90.9118654 L5.47286184,90.9118654 C4.31949013,90.9118654 3.39226974,89.9993312 3.39226974,88.8642277 C3.39226974,87.7291243 4.31949013,86.8165901 5.47286184,86.8165901 L49.5271382,86.8165901 C50.6805099,86.8165901 51.6077303,87.7291243 51.6077303,88.8642277 C51.6077303,89.9993312 50.6805099,90.9118654 49.5271382,90.9118654 Z" id="Shape" fill="url(#linearGradient-1)"></path>
                <path d="M14.2173913,4.92553191 C11.7362319,6.48108747 9,9.98108747 9,9.98108747 L11.8753623,11.9255319 C11.8753623,11.9255319 13.6608696,9.22618551 17,7.21311361" id="Path" fill="url(#linearGradient-2)"></path>
            </g>
        </g>
    </g>
</svg>
